X:1
T:(unknown title)
M:4/4
L:1/4
K:D
 F| F/2F/2 F2 A| A/2A/2 A2 A| A3/2 B/2 A G| F z2 A| B/2 B3/2 B c| d d d d/2d/2|\
 e d c B| A A B A| c4-| c A G E| D4| z2 z||

